X: 571
T: Dilde Rast Geldi
C: Şerif İçli
O: Turkey
F: http://compmusic.upf.edu/node/140
N: muhayyer--sarki--aksak--dilde_rast--serif_icli
N: makam= muhayyer
N: form= sarki
N: usul= aksak = 9/8
M: 9/8
L: 1/16
K: C _2/4B ^3/4f  
Q: 1/4=138
%%MIDI tuningsystem comma53
A4 g3a a4 c'bag ab | a4g2 fed^3/4c defg abc'd'  | 
w:  *  Dil de  rast  gel  |  *  di  de  *  dil *  *  *  dâ  | 
c'bab g2a2 a4 g=fed cB | A4g3aa4c'b agab  | 
w:  *  *  *  *  re  gö nül   SAZ  |  *  Dil de  rast  gel  | 
a4 g2fe d^3/4cde fgab c'd' | c'b abg2 a2a4ab agfg  | 
w:  *  di  de  *  dil *  *  *  dâ  |  *  *  *  *  re  gö nül   SAZ  | 
a4 g2a2 a2g2 a2ba gf | e3de2 f2a4g4(3fef  | \
w:  *  Ne  fe râh *  lan  |  *  *  dı  şu  bî çâ  | 
gfef e2e2 e4 abag fg | 
w:  *  *  *  *  re  gö nül   SAZ  | 
a4g2 a2g2 =fed2 cBAB  | A3G A2B2 d4 c4 (3BAB | \
w:  *  Ne  fe râh *  *  lan  |  *  *  dı  şu  bî çâ  | 
cB ABA2 A2A4c'4bd'  | 
w:  *  *  *  *  re  gö nül   SAZ  | 
c'4 c'2c'2 c'4 e'3/2d'/c'e' d'c' | \
w:  *  Dök tü  ses siz  | 
b2 a2d'c' bd'c'b ac'ba gbba  | 
w:  *  *  ce  *  he *  mân  *  *  *  göz  | 
g2(3fef g2a2 a4 c'4 bd' | c'4c'2 c'2c'4e'3/2d'/ c'e'd'c'  | \
w:  *  *  *  *  ya şı nı   SAZ  |  *  Dök tü  ses siz  | 
b2a2 d'c'bd' c'bac' bagb ba | 
w:  *  *  ce  *  he *  mân  *  *  *  göz  | 
g2 (3fefg2 a2a4ab agfg  | a4 g2a2 a2g2 a2ba gf | 
w:  *  *  *  *  ya şı nı   SAZ  |  *  Ne  fe râh *  lan  | 
e3de2 f2a4g4(3fef  | gfef e2e2 e4 abag fg | 
w:  *  *  dı  şu  bî çâ  |  *  *  *  *  re  gö nül   SAZ  | 
a4g2 a2g2 =fed2 cBAB  | A3G A2B2 d4 c4 (3BAB | \
w:  *  Ne  fe râh *  *  lan  |  *  *  dı  şu  bî çâ  | 
cB ABA2 A2A4|
w:  *  *  *  *  re  gö nül    | 


